pro/src/icons/full-desk.svg

<svg width="48" height="48" viewBox="0 0 48 48" xmlns="http://www.w3.org/2000/svg">
<path fill-rule="evenodd" clip-rule="evenodd" id="icon" d="M 4.9509 11.6398 C 4.9509 9.5357 6.4017 8 7.9972 7.9998 H 39.9875 C 41.5831 7.9998 43.0343 9.5356 43.0343 11.6398 V 16.1098 C 43.0343 16.5492 42.7574 16.9392 42.3305 17.0695 L 42.3251 17.0712 C 39.6043 17.9202 37.7025 20.7443 37.7025 23.9998 C 37.7025 27.2573 39.6153 30.0794 42.3241 30.9281 L 42.3305 30.93 C 42.7546 31.0596 43.0343 31.4575 43.0343 31.8898 V 36.3598 C 43.0343 38.4641 41.5831 39.9998 39.9875 39.9998 H 7.9975 C 6.402 39.9998 4.9509 38.4641 4.9509 36.3598 V 31.8898 C 4.9509 31.4506 5.2277 31.0603 5.6546 30.93 L 5.661 30.9281 C 8.3698 30.0794 10.2825 27.2573 10.2825 23.9998 C 10.2825 20.7424 8.3698 17.9202 5.661 17.0715 L 5.6546 17.0695 C 5.2305 16.9401 4.9509 16.5421 4.9509 16.1098 V 11.6398 Z M 30.6572 17.9998 C 30.6572 16.8952 29.8046 15.9998 28.7531 15.9998 C 27.7013 15.9998 26.8488 16.8952 26.8488 17.9998 V 29.9998 C 26.8488 31.1045 27.7013 31.9999 28.7531 31.9999 C 29.8046 31.9999 30.6572 31.1045 30.6572 29.9998 V 17.9998 Z" fill="currentColor"/>
</svg>

<svg xmlns="http://www.w3.org/2000/svg" width="48" height="48"><path id="icon" fill="currentColor" fill-rule="evenodd" d="M4.95 11.64C4.95 9.536 6.403 8 7.998 8h31.99c1.596 0 3.047 1.536 3.047 3.64v4.47c0 .44-.277.83-.703.96l-.006.001c-2.72.85-4.623 3.673-4.623 6.929s1.913 6.08 4.622 6.928l.007.002c.424.13.703.527.703.96v4.47c0 2.104-1.45 3.64-3.047 3.64H7.997c-1.595 0-3.046-1.536-3.046-3.64v-4.47c0-.44.277-.83.704-.96l.006-.002c2.709-.849 4.622-3.67 4.622-6.928S8.37 17.92 5.66 17.072l-.006-.002a1 1 0 0 1-.704-.96zM30.658 18c0-1.105-.852-2-1.904-2s-1.904.895-1.904 2v12c0 1.105.852 2 1.904 2s1.904-.895 1.904-2z" clip-rule="evenodd"/></svg>
